picto/car-train-right.svg

<svg class="color-immutable" width="24" height="24" viewBox="0 0 24 24" fill="none" xmlns="http://www.w3.org/2000/svg"><path d="M0 22.5V1.5C0 0.675 0.675 0 1.5 0H22.5C23.325 0 24 0.675 24 1.5V22.5C24 23.325 23.325 24 22.5 24H1.5C0.675 24 0 23.325 0 22.5Z" fill="#2D327D"/><path d="M4.29303 13.511C4.29303 12.569 5.05803 11.805 5.99903 11.805C6.94103 11.805 7.70503 12.569 7.70503 13.511C7.70503 14.453 6.94103 15.217 5.99903 15.217C5.05703 15.217 4.29303 14.452 4.29303 13.511ZM6.93703 13.511C6.93703 12.993 6.51703 12.573 5.99903 12.573C5.48203 12.573 5.06203 12.993 5.06203 13.511C5.06203 14.028 5.48203 14.448 5.99903 14.448C6.51703 14.448 6.93703 14.028 6.93703 13.511Z" fill="white"/><path d="M18.749 18.534C18.749 17.758 19.379 17.128 20.155 17.128C20.459 17.128 20.755 17.227 20.999 17.409V19.659C20.756 19.842 20.46 19.94 20.155 19.94C19.379 19.94 18.749 19.31 18.749 18.534Z" fill="white"/><path d="M3.329 10.136L5.58 7.886C5.791 7.675 6.077 7.556 6.376 7.556H12.86C13.158 7.556 13.444 7.675 13.655 7.886L16.269 10.5L20.657 10.864C20.851 10.88 21 11.042 21 11.237V13.575C21 13.782 20.832 13.95 20.625 13.95H20.213V13.519C20.213 12.277 19.205 11.269 17.963 11.269C16.721 11.269 15.713 12.277 15.713 13.519V13.95H8.25V13.519C8.25 12.277 7.242 11.269 6 11.269C4.758 11.269 3.75 12.277 3.75 13.519V13.95H3.375C3.168 13.95 3 13.782 3 13.575V10.932C3 10.633 3.118 10.347 3.329 10.136ZM10.087 10.182C10.088 10.389 10.255 10.556 10.462 10.556H14.721C14.845 10.556 14.946 10.455 14.946 10.331C14.946 10.271 14.922 10.214 14.88 10.172L13.087 8.378C13.017 8.308 12.921 8.268 12.822 8.268H10.462C10.255 8.268 10.087 8.436 10.087 8.643V10.182ZM4.513 10.556H8.998C9.205 10.556 9.373 10.388 9.373 10.181V8.644C9.373 8.437 9.205 8.269 8.998 8.269H6.413C6.314 8.269 6.218 8.309 6.148 8.379L4.355 10.173C4.313 10.215 4.289 10.272 4.289 10.332C4.288 10.456 4.389 10.556 4.513 10.556Z" fill="white"/><path d="M3 15.6H21V16.763H3V15.6Z" fill="white"/><path d="M3 20.25H21V20.962H3V20.25Z" fill="white"/><path d="M15.188 18.528C15.188 17.752 15.818 17.122 16.594 17.122C17.37 17.122 18 17.752 18 18.528C18 19.304 17.37 19.934 16.594 19.934C15.819 19.935 15.188 19.305 15.188 18.528Z" fill="white"/><path d="M7.91803 18.528C7.91803 17.752 8.54803 17.122 9.32403 17.122C10.1 17.122 10.73 17.752 10.73 18.528C10.73 19.304 10.1 19.934 9.32403 19.934C8.54803 19.935 7.91803 19.305 7.91803 18.528Z" fill="white"/><path d="M4.31097 18.528C4.31097 17.752 4.94097 17.122 5.71697 17.122C6.49297 17.122 7.12297 17.752 7.12297 18.528C7.12297 19.304 6.49297 19.934 5.71697 19.934C4.94097 19.935 4.31097 19.305 4.31097 18.528Z" fill="white"/><path d="M16.241 13.511C16.241 12.569 17.006 11.805 17.947 11.805C18.889 11.805 19.653 12.569 19.653 13.511C19.653 14.453 18.889 15.217 17.947 15.217C17.006 15.217 16.241 14.452 16.241 13.511ZM18.885 13.511C18.885 12.993 18.465 12.573 17.948 12.573C17.43 12.573 17.011 12.993 17.011 13.511C17.011 14.028 17.431 14.448 17.948 14.448C18.465 14.448 18.885 14.028 18.885 13.511Z" fill="white"/></svg>

<svg class="color-immutable" width="24" height="24" viewBox="0 0 24 24" fill="none" xmlns="http://www.w3.org/2000/svg"><g clip-path="url(#a)"><path d="M0 22.5v-21C0 .675.675 0 1.5 0h21c.825 0 1.5.675 1.5 1.5v21c0 .825-.675 1.5-1.5 1.5h-21C.675 24 0 23.325 0 22.5Z" fill="#2D327D"/><path d="M4.293 13.511a1.707 1.707 0 1 1 3.414.002 1.707 1.707 0 0 1-3.414-.002Zm2.644 0a.938.938 0 1 0-1.876 0 .938.938 0 0 0 1.876 0ZM18.749 18.534a1.407 1.407 0 0 1 2.25-1.125v2.25a1.407 1.407 0 0 1-2.25-1.125Z" fill="#fff"/><path d="m3.329 10.136 2.251-2.25c.211-.211.497-.33.796-.33h6.484c.298 0 .584.119.795.33l2.614 2.614 4.388.364a.374.374 0 0 1 .343.373v2.338a.375.375 0 0 1-.375.375h-.412v-.431a2.25 2.25 0 0 0-4.5 0v.431H8.25v-.431a2.25 2.25 0 0 0-4.5 0v.431h-.375A.375.375 0 0 1 3 13.575v-2.643c0-.299.118-.585.329-.796Zm6.758.046a.375.375 0 0 0 .375.374h4.259a.225.225 0 0 0 .159-.384l-1.793-1.794a.376.376 0 0 0-.265-.11h-2.36a.375.375 0 0 0-.375.375v1.539Zm-5.574.374h4.485a.375.375 0 0 0 .375-.375V8.644a.375.375 0 0 0-.375-.375H6.413a.376.376 0 0 0-.265.11l-1.793 1.794a.225.225 0 0 0 .158.383ZM3 15.6h18v1.163H3V15.6ZM3 20.25h18v.712H3v-.712ZM15.188 18.528a1.407 1.407 0 1 1 2.813.001 1.407 1.407 0 0 1-2.813-.001ZM7.918 18.528a1.407 1.407 0 1 1 2.813.001 1.407 1.407 0 0 1-2.813-.001ZM4.311 18.528a1.407 1.407 0 1 1 2.813.001 1.407 1.407 0 0 1-2.813-.001Z" fill="#fff"/><path d="M16.241 13.511a1.707 1.707 0 1 1 3.414.002 1.707 1.707 0 0 1-3.414-.002Zm2.644 0a.938.938 0 1 0-1.876 0 .938.938 0 0 0 1.876 0Z" fill="#fff"/></g><defs><clipPath id="a"><path fill="#fff" d="M0 0h24v24H0z"/></clipPath></defs></svg>
